icons/code-square-24.svg

<svg xmlns="http://www.w3.org/2000/svg" width="24" height="24" viewBox="0 0 24 24">
  <defs/>
  <path d="M10.3,8.24 A0.75 0.75 0 0 1 10.26,9.3 L7.352,12 L10.26,14.7 A0.75 0.75 0 1 1 9.24,15.8 L5.74,12.55 A0.75 0.75 0 0 1 5.74,11.45 L9.24,8.2 A0.75 0.75 0 0 1 10.3,8.24 Z M13.74,9.3 A0.75 0.75 0 1 1 14.76,8.2 L18.26,11.45 A0.75 0.75 0 0 1 18.26,12.55 L14.76,15.8 A0.75 0.75 0 1 1 13.74,14.7 L16.648,12 L13.74,9.3 Z"/>
  <path d="M2,3.75 C2,2.784 2.784,2 3.75,2 L20.25,2 C21.216,2 22,2.784 22,3.75 L22,20.25 C22,21.216 21.216,22 20.25,22 L3.75,22 C2.784,22 2,21.216 2,20.25 Z M3.75,3.5 C3.612,3.5 3.5,3.612 3.5,3.75 L3.5,20.25 C3.5,20.388 3.612,20.5 3.75,20.5 L20.25,20.5 C20.388,20.5 20.5,20.388 20.5,20.25 L20.5,3.75 C20.5,3.612 20.388,3.5 20.25,3.5 Z"/>
</svg>

<svg xmlns="http://www.w3.org/2000/svg" width="24" height="24" viewBox="0 0 24 24"><path d="M10.3 8.24a.75.75 0 01-.04 1.06L7.352 12l2.908 2.7a.75.75 0 11-1.02 1.1l-3.5-3.25a.75.75 0 010-1.1l3.5-3.25a.75.75 0 011.06.04zm3.44 1.06a.75.75 0 111.02-1.1l3.5 3.25a.75.75 0 010 1.1l-3.5 3.25a.75.75 0 11-1.02-1.1l2.908-2.7-2.908-2.7z"/><path fill-rule="evenodd" d="M2 3.75C2 2.784 2.784 2 3.75 2h16.5c.966 0 1.75.784 1.75 1.75v16.5A1.75 1.75 0 0120.25 22H3.75A1.75 1.75 0 012 20.25V3.75zm1.75-.25a.25.25 0 00-.25.25v16.5c0 .138.112.25.25.25h16.5a.25.25 0 00.25-.25V3.75a.25.25 0 00-.25-.25H3.75z"/></svg>
